X:1
T:Canon in D
T:Arr.Eliaz Bobadilla(Flute Cool)
T:Flute 2
L:1/8
M:4/4
K:D
V:1 treble nm="Flute" snm="Fl."
V:1
 d4 a4 | b4 f4 | g4 d4 | g4 a4 | dad'f' Aec'e' | Bfbd' Fcac' | Gdgb DAfa | Gdgb Aeac' | dddd AAAA | %9
 BBBB FFFF | GGGG DDDD | GGGG AAAA | dad'a Aeae | Bfbf Fcfc | Gdgd DAdA | Gdgd Aeae | dddd AAAA | %17
 BBBB FFFF | GGGG DDDD | GGGG AAAA | d'ada c'eAe | bfBf acFc | bdGd aADA | bdGd aeAe | dad'a Aeae | %25
 Bfbf Fcfc | G2 G2 F2 F/G/A/B/ | G2 B2 A/B/c/B/ A/B/G/A/ | f3 f fgfe | d3 d dedc | B3 B A2 F2 | %31
 G4 A4 | D4 A4 | B4 F4 | G4 D4 | G4 A4 | DAfA Aec'e | Bfbf Fcac | Gdbd DAfA | Gdbd Aec'e | %40
 d2 f4 e2- | e2 d4 c2- | c2 B2 d2 a2 | d4 c4 | !fermata!f8 |] %45

